images_elementary_svg/cmd/sc_edit.svg

<svg viewBox="0 0 16 16" xmlns="http://www.w3.org/2000/svg" xmlns:xlink="http://www.w3.org/1999/xlink"><radialGradient id="a" cx="8.168" cy=".273" gradientTransform="matrix(-1.81092 0 0 -2.56547 22.792 .7)" gradientUnits="userSpaceOnUse" r="6.626"><stop offset="0" stop-color="#737373"/><stop offset=".262" stop-color="#636363"/><stop offset=".705" stop-color="#4b4b4b"/><stop offset="1" stop-color="#3f3f3f"/></radialGradient>/&amp;gt;<path d="m11.173 14.52-.903-3.092h-4.54l-.903 3.09h-2.847l4.398-13.036h3.23l4.412 13.04zm-1.533-5.4q-1.252-4.203-1.414-4.753-.154-.55-.222-.87-.28 1.136-1.61 5.62z" fill="url(#a)" stroke="#000" stroke-linejoin="round" stroke-opacity=".471" stroke-width=".962"/><path d="m9 0v3h1l1-.287v9.487l-1 .8h-1v3h7v-3h-1l-1-.726v-9.596l1.143.322h.857v-3z" fill-rule="evenodd" opacity=".52"/><path d="m16-4.944 1.94-.027s1 0 1 1v15.387s-.087 1.544-1.088 1.544h-1.852m5.833-17.95-1.91.018s-1 0-1 1v15.932s.09 1.01 1.09 1l1.82-.016" fill="none" stroke="#fff" stroke-width="1.267" transform="matrix(.85714 0 0 .72727 -3.714 5.09)"/></svg>

<svg xmlns="http://www.w3.org/2000/svg" xmlns:xlink="http://www.w3.org/1999/xlink" viewBox="0 0 16 16"><defs><linearGradient id="a"><stop offset="0" stop-color="#737373"/><stop offset=".262" stop-color="#636363"/><stop offset=".705" stop-color="#4b4b4b"/><stop offset="1" stop-color="#3f3f3f"/></linearGradient><radialGradient xlink:href="#a" id="e" cx="8.168" cy=".273" fx="8.168" fy=".273" r="6.626" gradientTransform="matrix(-1.81092 0 0 -2.56547 22.792 .7)" gradientUnits="userSpaceOnUse"/><linearGradient id="c"><stop offset="0" stop-color="#888"/><stop offset="1" stop-color="#626262"/></linearGradient><linearGradient id="d"><stop offset="0" stop-color="#efefef"/><stop offset="1" stop-color="#c9c9c9"/></linearGradient><linearGradient x1="63.999" y1="3.1" x2="63.999" y2="122.899" id="b" gradientUnits="userSpaceOnUse"><stop offset="0" stop-color="#f6f6f6"/><stop offset="1" stop-color="#e6e6e6"/></linearGradient></defs>/&gt;<path d="M11.173 14.52l-.903-3.092H5.73l-.903 3.09H1.98L6.378 1.482h3.23l4.412 13.04zM9.64 9.12Q8.388 4.917 8.226 4.367q-.154-.55-.222-.87-.28 1.136-1.61 5.62z" fill="url(#e)" stroke="#000" stroke-width=".962" stroke-linejoin="round" stroke-opacity=".471"/><path d="M9 0v3h1l1-.287V12.2l-1 .8H9v3h7v-3h-1l-1-.726V2.678L15.143 3H16V0z" opacity=".52" fill-rule="evenodd"/><path d="M16-4.944l1.94-.027s1 0 1 1v15.387s-.087 1.544-1.088 1.544H16m5.833-17.95l-1.91.018s-1 0-1 1V11.96s.09 1.01 1.09 1l1.82-.016" transform="matrix(.85714 0 0 .72727 -3.714 5.09)" fill="none" stroke="#fff" stroke-width="1.267"/></svg>
